tools/download-figma-icons/icons/outlined-large/street-light.svg

<svg width="64" height="64" viewBox="0 0 64 64" fill="none" xmlns="http://www.w3.org/2000/svg">
<path fill-rule="evenodd" clip-rule="evenodd" d="M34.26 3C35.25 5.86 39.021 8 43.5 8C47.98 8 51.75 5.86 52.74 3H34.26ZM19.84 61L18.14 44H12.86L11.16 61H19.84ZM54 0.09C54.16 0.03 54.32 0 54.5 0C55.33 0 56 0.67 56 1.5C56 6.74 50.39 11 43.5 11C37.28 11 32.1 7.53 31.15 3H29.5C22.61 3 17 8.61 17 15.5V41H19.5C20.27 41 20.92 41.58 20.99 42.35L22.86 61H24.5C25.33 61 26 61.67 26 62.5C26 63.33 25.33 64 24.5 64H6.5C5.67 64 5 63.33 5 62.5C5 61.67 5.67 61 6.5 61H8.15L10.01 42.35C10.08 41.58 10.729 41 11.5 41H14V15.5C14 6.95 20.95 0 29.5 0H53.5C53.68 0 53.84 0.03 54 0.09ZM42 17.5C42 16.672 42.672 16 43.5 16C44.328 16 45 16.672 45 17.5V23.5C45 24.328 44.328 25 43.5 25C42.672 25 42 24.328 42 23.5V17.5ZM58.6709 18.5625L54.6709 13.5625C54.1549 12.9165 53.2129 12.8095 52.5629 13.3295C51.9159 13.8465 51.8119 14.7905 52.3289 15.4375L56.3289 20.4375C56.6249 20.8075 57.0609 21.0005 57.5009 21.0005C57.8289 21.0005 58.1599 20.8925 58.4379 20.6705C59.0839 20.1535 59.1889 19.2095 58.6709 18.5625ZM32.3295 13.5621C32.8455 12.9161 33.7885 12.8091 34.4375 13.3291C35.0835 13.8471 35.1885 14.7901 34.6705 15.4371L30.6705 20.4371C30.3755 20.8081 29.9395 21.0001 29.4995 21.0001C29.1705 21.0001 28.8395 20.8921 28.5625 20.6711C27.9165 20.1531 27.8115 19.2101 28.3295 18.5621L32.3295 13.5621Z" fill="black"/>
</svg>

<svg xmlns="http://www.w3.org/2000/svg" width="64" height="64" fill="none" viewBox="0 0 64 64"><path fill="currentColor" fill-rule="evenodd" d="M34.26 3c.99 2.86 4.761 5 9.24 5 4.48 0 8.25-2.14 9.24-5zM19.84 61l-1.7-17h-5.28l-1.7 17zM54 .09c.16-.06.32-.09.5-.09.83 0 1.5.67 1.5 1.5 0 5.24-5.61 9.5-12.5 9.5-6.22 0-11.4-3.47-12.35-8H29.5C22.61 3 17 8.61 17 15.5V41h2.5c.77 0 1.42.58 1.49 1.35L22.86 61h1.64c.83 0 1.5.67 1.5 1.5s-.67 1.5-1.5 1.5h-18c-.83 0-1.5-.67-1.5-1.5S5.67 61 6.5 61h1.65l1.86-18.65A1.49 1.49 0 0 1 11.5 41H14V15.5C14 6.95 20.95 0 29.5 0h24c.18 0 .34.03.5.09M42 17.5a1.5 1.5 0 0 1 3 0v6a1.5 1.5 0 0 1-3 0zm16.67 1.063-4-5a1.5 1.5 0 0 0-2.342 1.875l4 5a1.497 1.497 0 0 0 2.11.233 1.5 1.5 0 0 0 .233-2.108m-26.34-5a1.5 1.5 0 0 1 2.341 1.875l-4 5a1.498 1.498 0 1 1-2.341-1.875z" clip-rule="evenodd"/></svg>
